packages/core/src/svgs/tokens/branded/HPO.svg

<svg width="24" height="24" viewBox="0 0 24 24" fill="none" xmlns="http://www.w3.org/2000/svg">
<path d="M13.7647 10.2353V2H10.2354V10.2353H13.7647ZM13.7647 13.7647V10.2353H22V13.7647H13.7647ZM13.7647 13.7647V22H10.2354V13.7647H13.7647Z" fill="black"/>
<path d="M2 10.2352H10.2353V13.7646H2V10.2352Z" fill="#106BFF"/>
</svg>

<svg xmlns="http://www.w3.org/2000/svg" width="24" height="24" fill="none" viewBox="0 0 24 24">
    <path fill="#000" d="M13.765 10.235V2h-3.53v8.235zm0 3.53v-3.53H22v3.53zm0 0V22h-3.53v-8.235z"/>
    <path fill="#106BFF" d="M2 10.235h8.235v3.53H2z"/>
</svg>
